X:596
T:Prince William
C:Walsh, 1731
M:4/4
L:1/4
S:Colin Hume's website,  colinhume.com  - chords can also be printed below the stave.
Q:1/2=112
%%MIDI ratio 3 1
K:A
P:A
|: "A"A2 cB/A/ | "E"B2 Ed | "A"c2 "E"B2 | "A"A/G/A/B/ AB |\
"A"cA Ec | "E"B2- "B7"BA | "E"Ge "B7"F^d | "E"e4 :|
P:B
|: "A"e2 "D"f>e | "E"dc Be | "Bm"dc "B7/D#"BA | "E"GB "E7"E2 |\
"A"AG/A/ "E"B A/B/ | "A"cB/c/ "D"de | "A"cB/A/ "E7"EG | "A"A4 :|

